assets/features/global-acquiring/XMLID_34_.svg

<svg width="63" height="26" viewBox="0 0 63 26" fill="none" xmlns="http://www.w3.org/2000/svg">
<path d="M11.51 3.33457C10.7717 4.2082 9.59044 4.89727 8.40919 4.79883C8.26153 3.61758 8.83985 2.3625 9.51661 1.5873C10.2549 0.689063 11.5469 0.0492188 12.5928 0C12.7158 1.23047 12.2359 2.43633 11.51 3.33457ZM12.5805 5.03262C10.8701 4.93418 9.40587 6.00469 8.59376 6.00469C7.76935 6.00469 6.52657 5.08184 5.17306 5.10645C3.41349 5.13106 1.77696 6.12774 0.87872 7.71504C-0.966983 10.8896 0.398838 15.59 2.18302 18.174C3.05665 19.4537 4.10255 20.8564 5.48067 20.8072C6.78497 20.758 7.30177 19.9582 8.87677 19.9582C10.4641 19.9582 10.9193 20.8072 12.2975 20.7826C13.7248 20.758 14.6231 19.5029 15.4967 18.2232C16.4934 16.7713 16.8994 15.3563 16.924 15.2824C16.8994 15.2578 14.1678 14.2119 14.1432 11.0619C14.1186 8.42871 16.2965 7.17363 16.3949 7.09981C15.1645 5.27871 13.2449 5.08184 12.5805 5.03262ZM22.4611 1.46426V20.6473H25.4389V14.0889H29.5609C33.3262 14.0889 35.9717 11.5049 35.9717 7.76426C35.9717 4.02363 33.3754 1.46426 29.6594 1.46426H22.4611ZM25.4389 3.97441H28.8719C31.4559 3.97441 32.9324 5.35254 32.9324 7.77656C32.9324 10.2006 31.4559 11.591 28.8596 11.591H25.4389V3.97441ZM41.4104 20.7949C43.2807 20.7949 45.0156 19.8475 45.8031 18.3463H45.8647V20.6473H48.6209V11.0988C48.6209 8.33027 46.4061 6.54609 42.9977 6.54609C39.8354 6.54609 37.4975 8.35488 37.4113 10.8404H40.0938C40.3152 9.65918 41.4104 8.88399 42.9115 8.88399C44.7326 8.88399 45.7539 9.73301 45.7539 11.2957V12.3539L42.0379 12.5754C38.5803 12.7846 36.71 14.1996 36.71 16.6605C36.71 19.1461 38.6418 20.7949 41.4104 20.7949ZM42.2102 18.5186C40.6229 18.5186 39.6139 17.7557 39.6139 16.5867C39.6139 15.3809 40.5859 14.6795 42.444 14.5688L45.7539 14.3596V15.4424C45.7539 17.2389 44.2281 18.5186 42.2102 18.5186ZM52.3 25.8645C55.2039 25.8645 56.5697 24.757 57.7633 21.3979L62.9928 6.73067H59.9658L56.459 18.0633H56.3975L52.8906 6.73067H49.7775L54.8225 20.6965L54.5518 21.5455C54.0965 22.9852 53.3582 23.5389 52.0416 23.5389C51.8078 23.5389 51.3525 23.5143 51.168 23.4897V25.7906C51.3402 25.8398 52.0785 25.8645 52.3 25.8645Z" fill="black"/>
</svg>

<svg xmlns="http://www.w3.org/2000/svg" width="63" height="26" fill="none" viewBox="0 0 63 26"><path fill="#000" d="M11.51 3.335c-.738.873-1.92 1.562-3.1 1.464-.148-1.181.43-2.437 1.107-3.212C10.255.69 11.547.05 12.593 0c.123 1.23-.357 2.436-1.083 3.335m1.07 1.698c-1.71-.099-3.174.972-3.986.972-.825 0-2.067-.923-3.42-.899-1.76.025-3.397 1.022-4.295 2.609-1.846 3.175-.48 7.875 1.304 10.459.874 1.28 1.92 2.682 3.298 2.633 1.304-.049 1.82-.849 3.396-.849 1.587 0 2.042.85 3.42.825 1.428-.025 2.326-1.28 3.2-2.56.996-1.452 1.402-2.867 1.427-2.94-.025-.025-2.756-1.071-2.78-4.221-.025-2.633 2.153-3.888 2.25-3.962-1.23-1.821-3.15-2.018-3.813-2.067m9.881-3.569v19.183h2.978V14.09h4.122c3.765 0 6.41-2.584 6.41-6.325s-2.596-6.3-6.312-6.3zm2.978 2.51h3.433c2.584 0 4.06 1.379 4.06 3.803s-1.476 3.814-4.072 3.814H25.44zm15.971 16.82c1.87 0 3.606-.947 4.393-2.448h.062v2.301h2.756V11.1c0-2.769-2.215-4.553-5.623-4.553-3.163 0-5.5 1.809-5.587 4.294h2.683c.221-1.18 1.316-1.956 2.817-1.956 1.822 0 2.843.849 2.843 2.412v1.058l-3.716.221c-3.458.21-5.328 1.625-5.328 4.085 0 2.486 1.932 4.135 4.7 4.135m.8-2.275c-1.587 0-2.596-.763-2.596-1.932 0-1.206.972-1.907 2.83-2.018l3.31-.21v1.083c0 1.797-1.526 3.077-3.544 3.077m10.09 7.346c2.904 0 4.27-1.108 5.463-4.467l5.23-14.667h-3.027L56.46 18.065h-.062L52.892 6.731h-3.113l5.044 13.966-.27.849c-.456 1.44-1.194 1.993-2.51 1.993-.234 0-.69-.025-.874-.05v2.302c.172.049.91.073 1.132.073"/></svg>
